P2
# Schematic bird head: white background, gray silhouette, white eye.
24 16
255
255 255 255 255 255 255 255 255 255 255 255 255 255 255 255 255 255 255 255 255 255 255 255 255
255 255 255 255 255 255 255 255 255 255 255 255 255 255 255 255 255 255 255 255 255 255 255 255
255 255 255 255 255 255 255 255 255 255 80 80 80 80 80 80 255 255 255 255 255 255 255 255
255 255 255 255 255 255 255 255 80 80 80 80 80 80 80 80 80 80 255 255 255 255 255 255
255 255 255 255 255 255 255 80 80 80 80 80 80 80 80 80 80 80 80 255 255 255 255 255
255 255 255 255 255 255 255 80 80 80 80 80 80 80 255 80 80 80 80 255 255 255 255 255
255 255 255 255 255 255 80 80 80 80 80 80 80 80 80 80 80 80 80 255 255 255 255 255
255 255 255 255 255 255 80 80 80 80 80 80 80 80 80 80 80 80 80 80 80 255 255 255
255 255 255 255 255 255 80 80 80 80 80 80 80 80 80 80 80 80 80 80 80 80 80 255
255 255 255 255 255 255 80 80 80 80 80 80 80 80 80 80 80 80 80 80 80 255 255 255
255 255 255 255 255 255 255 80 80 80 80 80 80 80 80 80 80 80 80 255 255 255 255 255
255 255 255 255 255 255 255 80 80 80 80 80 80 80 80 80 80 80 255 255 255 255 255 255
255 255 255 255 255 255 255 255 80 80 80 80 80 80 80 80 255 255 255 255 255 255 255 255
255 255 255 255 255 255 255 255 255 80 80 80 80 80 80 255 255 255 255 255 255 255 255 255
255 255 255 255 255 255 255 255 255 255 255 255 255 255 255 255 255 255 255 255 255 255 255 255
255 255 255 255 255 255 255 255 255 255 255 255 255 255 255 255 255 255 255 255 255 255 255 255
